X:159
T: Krauserlin, Mauserlin
N: A0197A
O: Europa, Mitteleuropa, Deutschland
N: Gassenhawerlin 1535 No. 12. Tonsatz von Heinrich Finck.
R: Romanze, Ballade, Lied
M: 4/2
L: 1/4
K: G
G2 | G4G4 | A4B4 | c6c2 | c4z2
c2 | c2c2A2A2 | d6c2 | B2c2A4 | G4z2
G2 | G4G4 | A4B4 | c6c2 | c4z2
c2 | c2c2A2A2 | d6c2 | B2c2A4 | G4z2
B2 | c4c4 | B4e4 | d3cd4 | c4z2
c2 | c2c2A2B2 | c2c2A2B2 | c2d2e2c2 | d6c2 | B2AGA4 | G6

@@@ Tune index: 159
